X:1
T:Title
%%score { ( 1 4 ) | ( 2 3 ) }
L:1/8
M:6/8
K:A
V:1 treble nm="Grand Piano"
V:4 treble 
V:2 bass 
V:3 bass 
V:1
 z3 z2[Q:1/4=110] [CE] | [Ec]3 [Ec]2 [DB] | [CA]3 [CE]2 [CE] | [DF]3 [FA]2 [DF] | %4
 [CE]3- [CE]2 [CE] | [CA]3 [CA]2 [DG] | [EA]3 [EB]2 [Ec] | [^DB]3 [DF]2 [Dc] | B3- B2 E | %9
 [Ec]3 [Ec]2 [DB] | [CA]3 [CE]2 [CE] | [DF]3 [FA]2 [FB] | [^Ec]3- [Ec]2 [=Ec] | [Ed]3 [Ec]2 [EB] | %14
 [Ec]3 [CA]2 [Ec] | B3 A2 G |[M:5/8] [CA]-[CA]- [CA]3 |[M:1/8][Q:1/4=87] [CE] | %18
[M:3/4] [CE][A,C] [CA] G2 E | EG B A2 A | F>F F[^DF] [DG][DA] | [DB]6[K:bass] |[M:1/8] E/E/ | %23
[M:3/4][K:treble] [CE][EA] B c2 A/A/ | AB c [Fd]2 [FB] | A>A AG AB |[M:5/8] [CEA]-[CEA]- [CEA]3 |] %27
V:2
 z3 z2 [A,,A,] | [A,,A,]3 [A,,A,]2 [A,,A,] | [A,,E,]3 [A,,A,]2 [A,,A,] | [D,A,]3 [D,A,]2 [D,A,] | %4
 [A,,A,]3- [A,,A,]2 [A,,A,] | [A,,E,]3 [A,,E,]2 [B,,E,] | [C,A,]3 [B,,G,]2 [A,,A,] | %7
 [B,,A,]3 [B,,A,]2 [B,,A,] | [E,G,D]3- [E,G,D]2 [A,C] | [A,,A,]3 [A,,A,]2 [A,,A,] | %10
 [A,,E,]3 [A,,A,]2 [A,,A,] | [D,A,]3 [D,A,]2 [D,F,] | [C,G,]3- [C,G,]2 [C,A,] | %13
 [B,,G,]3 [E,A,]2 [E,G,] | [A,,A,]3 [A,,E,]2 [A,,A,] | [E,G,D]3 [E,A,C]2 [E,B,] | %16
[M:5/8] [A,,E,]-[A,,E,]- [A,,E,]3 |[M:1/8] [A,,A,] | %18
[M:3/4] [A,,A,][A,,E,] [A,,A,] [E,B,E]2 [E,G,] | [E,G,][E,B,E] [E,DE] [A,CE]2 [A,CE] | B,4 z2 | %21
 [E,G,]E, E, E,3 |[M:1/8] [E,G,D]/[E,G,D]/ | %23
[M:3/4] [A,,A,][C,A,] [E,G,E][K:treble] [A,E]2 [A,CE]/[A,CE]/ | %24
 [A,CE][G,B,E] [A,=G][K:bass] [D,A,]2 [D,D] | [E,CE]>[E,CE] [E,CE][E,B,E] [E,CE][E,DE] | %26
[M:5/8] [A,,A,]-[A,,A,]- [A,,A,]3 |] %27
V:3
 x6 | x6 | x6 | x6 | x6 | x6 | x6 | x6 | x6 | x6 | x6 | x6 | x6 | x6 | x6 | x6 |[M:5/8] x5 | %17
[M:1/8] x |[M:3/4] x6 | x6 | ^D>D D [B,,B,]2 [B,,A,] | x6 |[M:1/8] x |[M:3/4] x3[K:treble] x3 | %24
 x3[K:bass] x3 | x6 |[M:5/8] x5 |] %27
V:4
 x6 | x6 | x6 | x6 | x6 | x6 | x6 | x6 | x6 | x6 | x6 | x6 | x6 | x6 | x6 | x6 |[M:5/8] x5 | %17
[M:1/8] x |[M:3/4] x6 | x6 | x6 | z[K:bass] G, G, G,3 |[M:1/8] x |[M:3/4][K:treble] x6 | x6 | x6 | %26
[M:5/8] x5 |] %27

